packages/sources/icons/src/vitamix/slack-line.svg

<svg width="16" height="16" viewBox="0 0 16 16" fill="none" xmlns="http://www.w3.org/2000/svg">
<path fill-rule="evenodd" clip-rule="evenodd" d="M10.6667 3C10.6667 2.44772 10.219 2 9.66667 2C9.11438 2 8.66667 2.44772 8.66667 3V6.33333C8.66667 6.88562 9.11438 7.33333 9.66667 7.33333C10.219 7.33333 10.6667 6.88562 10.6667 6.33333V3ZM4 8.66667H3C2.44772 8.66667 2 9.11438 2 9.66667C2 10.219 2.44772 10.6667 3 10.6667C3.55228 10.6667 4 10.219 4 9.66667V8.66667ZM8.66667 12H9.66667C10.219 12 10.6667 12.4477 10.6667 13C10.6667 13.5523 10.219 14 9.66667 14C9.11438 14 8.66667 13.5523 8.66667 13V12ZM13 8.66667H9.66667C9.11438 8.66667 8.66667 9.11438 8.66667 9.66667C8.66667 10.219 9.11438 10.6667 9.66667 10.6667H13C13.5523 10.6667 14 10.219 14 9.66667C14 9.11438 13.5523 8.66667 13 8.66667ZM13 5.33333C13.5523 5.33333 14 5.78105 14 6.33333C14 6.88562 13.5523 7.33333 13 7.33333H12V6.33333C12 5.78105 12.4477 5.33333 13 5.33333ZM6.33333 5.33333H3C2.44772 5.33333 2 5.78105 2 6.33333C2 6.88562 2.44772 7.33333 3 7.33333H6.33333C6.88562 7.33333 7.33333 6.88562 7.33333 6.33333C7.33333 5.78105 6.88562 5.33333 6.33333 5.33333ZM6.33333 2C6.88562 2 7.33333 2.44772 7.33333 3V4H6.33333C5.78105 4 5.33333 3.55228 5.33333 3C5.33333 2.44772 5.78105 2 6.33333 2ZM7.33333 9.66667C7.33333 9.11438 6.88562 8.66667 6.33333 8.66667C5.78105 8.66667 5.33333 9.11438 5.33333 9.66667V13C5.33333 13.5523 5.78105 14 6.33333 14C6.88562 14 7.33333 13.5523 7.33333 13V9.66667Z" fill="#001018"/>
</svg>

<svg width="16" height="16" fill="none" xmlns="http://www.w3.org/2000/svg"><path fill-rule="evenodd" clip-rule="evenodd" d="M10.667 3a1 1 0 1 0-2 0v3.333a1 1 0 1 0 2 0V3zM4 8.667H3a1 1 0 1 0 1 1v-1zM8.667 12h1a1 1 0 1 1-1 1v-1zM13 8.667H9.667a1 1 0 1 0 0 2H13a1 1 0 1 0 0-2zm0-3.334a1 1 0 1 1 0 2h-1v-1a1 1 0 0 1 1-1zm-6.667 0H3a1 1 0 0 0 0 2h3.333a1 1 0 1 0 0-2zm0-3.333a1 1 0 0 1 1 1v1h-1a1 1 0 0 1 0-2zm1 7.667a1 1 0 1 0-2 0V13a1 1 0 1 0 2 0V9.667z" fill="#001018"/></svg>
